public/assets/img/arrow-up-op.svg

<svg width="20" height="20" viewBox="0 0 20 20" fill="none" xmlns="http://www.w3.org/2000/svg">
<path d="M9.99658 3.41406C10.2358 3.41406 10.4819 3.50977 10.646 3.6875L15.1235 8.16504C15.3081 8.34961 15.397 8.56836 15.397 8.79395C15.397 9.29297 15.0415 9.64844 14.563 9.64844C14.3032 9.64844 14.0913 9.53906 13.9341 9.375L12.3755 7.83008L10.8169 6.05957L10.8716 7.54297V15.5479C10.8716 16.0879 10.5161 16.4502 9.99658 16.4502C9.47705 16.4502 9.12158 16.0879 9.12158 15.5479V7.54297L9.18311 6.05957L7.61768 7.83008L6.06592 9.375C5.90186 9.53906 5.69678 9.64844 5.43701 9.64844C4.9585 9.64844 4.60303 9.29297 4.60303 8.79395C4.60303 8.56836 4.69189 8.34961 4.87646 8.16504L9.34717 3.6875C9.51807 3.50977 9.75732 3.41406 9.99658 3.41406Z" fill="#E0E0FF" fill-opacity="0.4"/>
</svg>

<svg width="20" height="20" fill="none" xmlns="http://www.w3.org/2000/svg"><path d="M9.997 3.414c.239 0 .485.096.649.273l4.477 4.478a.878.878 0 0 1 .274.629c0 .499-.356.854-.834.854a.854.854 0 0 1-.629-.273L12.376 7.83l-1.56-1.77.056 1.483v8.005c0 .54-.356.902-.875.902-.52 0-.875-.362-.875-.902V7.543l.061-1.483-1.565 1.77-1.552 1.545a.866.866 0 0 1-.629.273c-.479 0-.834-.355-.834-.854 0-.226.089-.444.273-.629l4.471-4.477a.905.905 0 0 1 .65-.274Z" fill="#E0E0FF" fill-opacity=".4"/></svg>
